teeny/outline/css3.svg

<svg width="15" height="15" viewBox="0 0 15 15" fill="none" xmlns="http://www.w3.org/2000/svg">
<path d="M0.5 0.5V0C0.360174 0 0.226736 0.0585498 0.132059 0.161445C0.0373814 0.264341 -0.00988477 0.40218 0.00172713 0.541523L0.5 0.5ZM14.5 0.5L14.9983 0.541523C15.0099 0.40218 14.9626 0.264341 14.8679 0.161445C14.7733 0.0585498 14.6398 0 14.5 0V0.5ZM13.5 12.5L13.6581 12.9743C13.8479 12.9111 13.9817 12.7408 13.9983 12.5415L13.5 12.5ZM7.5 14.5L7.34189 14.9743C7.44452 15.0086 7.55548 15.0086 7.65811 14.9743L7.5 14.5ZM1.5 12.5L1.00173 12.5415C1.01834 12.7408 1.15214 12.9111 1.34189 12.9743L1.5 12.5ZM10.5 3.5H11V3H10.5V3.5ZM10.5 9.5L10.6581 9.97434L11 9.86038V9.5H10.5ZM7.5 10.5L7.34189 10.9743L7.5 11.027L7.65811 10.9743L7.5 10.5ZM4.5 9.5H4V9.86038L4.34189 9.97434L4.5 9.5ZM0.5 1H14.5V0H0.5V1ZM14.0017 0.458477L13.0017 12.4585L13.9983 12.5415L14.9983 0.541523L14.0017 0.458477ZM13.3419 12.0257L7.34189 14.0257L7.65811 14.9743L13.6581 12.9743L13.3419 12.0257ZM7.65811 14.0257L1.65811 12.0257L1.34189 12.9743L7.34189 14.9743L7.65811 14.0257ZM1.99827 12.4585L0.998273 0.458477L0.00172713 0.541523L1.00173 12.5415L1.99827 12.4585ZM10.5 3H4V4H10.5V3ZM6 7H10.5V6H6V7ZM10 6.5V9.5H11V6.5H10ZM10.3419 9.02566L7.34189 10.0257L7.65811 10.9743L10.6581 9.97434L10.3419 9.02566ZM7.65811 10.0257L4.65811 9.02566L4.34189 9.97434L7.34189 10.9743L7.65811 10.0257ZM5 9.5V8H4V9.5H5ZM10 3.5V6.5H11V3.5H10Z" fill="black"/>
</svg>

<svg viewBox="0 0 15 15" xmlns="http://www.w3.org/2000/svg"><path d="M.5.5V0C.36 0 .22.05.13.16c-.1.1-.15.24-.14.38L.48.49Zm14 0l.49.04c.01-.14-.04-.28-.14-.39 -.1-.11-.23-.17-.37-.17v.5Zm-1 12l.15.47c.18-.07.32-.24.34-.44l-.5-.05Zm-6 2l-.16.47c.1.03.21.03.31 0l-.16-.48Zm-6-2l-.5.04c.01.19.15.36.34.43l.15-.48Zm9-9h.5V3h-.5v.5Zm0 6l.15.47 .34-.12v-.37h-.5Zm-3 1l-.16.47 .15.05 .15-.06 -.16-.48Zm-3-1H4v.36l.34.11 .15-.48ZM.5 1h14V0H.5v1ZM14 .45l-1 12 .99.08 1-12 -1-.09Zm-.66 11.56l-6.01 2 .31.94 5.99-2 -.32-.95Zm-5.69 2l-6-2 -.32.94 6 2 .31-.95Zm-5.66-1.57L.99.43l-1 .08 1 11.99 .99-.09Zm8.5-9.46h-6.5v1h6.5v-1Zm-4.5 4h4.5v-1h-4.5v1Zm4-.5v3h1v-3h-1ZM10.33 9l-3.01 1 .31.94 2.99-1 -.32-.95Zm-2.69 1l-3-1.01 -.32.94 3 .99 .31-.95Zm-2.66-.53v-1.5h-1v1.5h1Zm5-6v3h1v-3h-1Z"/></svg>
